svgs/regular/draw-square.svg

<svg xmlns="http://www.w3.org/2000/svg" viewBox="0 0 448 512"><!-- Font Awesome Pro 5.15.3 by @fontawesome - https://fontawesome.com License - https://fontawesome.com/license (Commercial License) --><path d="M408 356.75v-201.5c23.44-9.5 40-32.41 40-59.25 0-35.35-28.65-64-64-64-26.84 0-49.75 16.56-59.25 40h-201.5c-9.5-23.44-32.4-40-59.25-40C28.65 32 0 60.65 0 96c0 26.84 16.56 49.75 40 59.25v201.49C16.56 366.25 0 389.15 0 416c0 35.35 28.65 64 64 64 26.85 0 49.75-16.56 59.25-40h201.49c9.5 23.44 32.41 40 59.25 40 35.35 0 64-28.65 64-64 .01-26.85-16.55-49.75-39.99-59.25zm-320 0v-201.5A64.053 64.053 0 0 0 123.25 120h201.49a64.053 64.053 0 0 0 35.25 35.25v201.49a64.053 64.053 0 0 0-35.25 35.25H123.25A64.066 64.066 0 0 0 88 356.75zM384 80c8.82 0 16 7.18 16 16s-7.18 16-16 16-16-7.18-16-16 7.18-16 16-16zM64 80c8.82 0 16 7.18 16 16s-7.18 16-16 16-16-7.18-16-16 7.18-16 16-16zm0 352c-8.82 0-16-7.18-16-16s7.18-16 16-16 16 7.18 16 16-7.18 16-16 16zm320 0c-8.82 0-16-7.18-16-16s7.18-16 16-16 16 7.18 16 16-7.18 16-16 16z"/></svg>

<svg xmlns="http://www.w3.org/2000/svg" viewBox="0 0 448 512"><!--! Font Awesome Pro 6.0.0-alpha3 by @fontawesome - https://fontawesome.com License - https://fontawesome.com/license (Commercial License) --><path d="M408 356.8V155.2C431.5 145.8 448 122.9 448 96c0-35.38-28.62-64-64-64c-26.88 0-49.75 16.5-59.25 40H123.2C113.8 48.5 90.88 32 64 32C28.62 32 0 60.62 0 96c0 26.88 16.5 49.75 40 59.25v201.5C16.5 366.2 0 389.1 0 416c0 35.38 28.62 64 64 64c26.88 0 49.75-16.5 59.25-40h201.5C334.2 463.5 357.1 480 384 480c35.38 0 64-28.62 64-64C448 389.1 431.5 366.2 408 356.8zM88 356.8V155.2C104 148.8 116.8 136 123.2 120h201.5C331.2 136 344 148.8 360 155.2v201.5C344 363.2 331.2 376 324.8 392H123.2C116.8 376 104 363.2 88 356.8zM384 80c8.875 0 16 7.125 16 16S392.9 112 384 112S368 104.9 368 96S375.1 80 384 80zM64 80c8.875 0 16 7.125 16 16S72.88 112 64 112S48 104.9 48 96S55.12 80 64 80zM64 432c-8.875 0-16-7.125-16-16s7.125-16 16-16s16 7.125 16 16S72.88 432 64 432zM384 432c-8.875 0-16-7.125-16-16s7.125-16 16-16s16 7.125 16 16S392.9 432 384 432z"/></svg>
